X:127
T: WER SINGET IM WALDE SO HEIMLICH ALLEIN
N: B0159
O: Europa, Mitteleuropa, Deutschland
R: Ballade, Romanze
M: 4/4
L: 1/4
K: E
E | E2EE | =G2FE | =G2FE | B2
EF | =GFGE | B2
EF | =GFGE | B2
=GA | B2B2 | B2=cB | BAAA | A2
F=G | AAAA | A=dd=c | B=GGG | =G2
A2 | BBBB | BBBB | =d=cBA | B2
B2 | BBBB | BBBB | B2A2 | =G2F2 | E3

